images/work.svg

<svg id="work" xmlns="http://www.w3.org/2000/svg" width="24" height="24" viewBox="0 0 24 24">
  <path id="Trazado_13" data-name="Trazado 13" d="M0,0H24V24H0Z" fill="none"/>
  <path id="Trazado_14" data-name="Trazado 14" d="M20,6H16V4a1.993,1.993,0,0,0-2-2H10A1.993,1.993,0,0,0,8,4V6H4A1.985,1.985,0,0,0,2.01,8L2,19a1.993,1.993,0,0,0,2,2H20a1.993,1.993,0,0,0,2-2V8A1.993,1.993,0,0,0,20,6ZM14,6H10V4h4Z" fill="#373f47"/>
</svg>

<svg xmlns="http://www.w3.org/2000/svg" width="24" height="24" viewBox="0 0 24 24"><path fill="none" d="M0 0h24v24H0V0z"/><path d="M20 6h-4V4c0-1.11-.89-2-2-2h-4c-1.11 0-2 .89-2 2v2H4c-1.11 0-1.99.89-1.99 2L2 19c0 1.11.89 2 2 2h16c1.11 0 2-.89 2-2V8c0-1.11-.89-2-2-2zm-6 0h-4V4h4v2z"/></svg>
